;FLAVOR:Marlin
;TIME:10858
;Filament used: 5.17109m
;Layer height: 0.2
;MINX:49.128
;MINY:49.128
;MINZ:0.2
;MAXX:170.874
;MAXY:170.871
;MAXZ:52
;Generated with Cura_SteamEngine 4.10.0
M140 S60
M105
M190 S60
M104 S200
M105
M109 S200
M82 ;absolute extrusion mode
; Ender 3 Custom Start G-code
G92 E0 ; Reset Extruder
G28 ; Home all axes
G1 Z2.0 F3000 ; Move Z Axis up little to prevent scratching of Heat Bed
G1 X0.1 Y20 Z0.3 F5000.0 ; Move to start position
G1 X0.1 Y200.0 Z0.3 F1500.0 E15 ; Draw the first line
G1 X0.4 Y200.0 Z0.3 F5000.0 ; Move to side a little
G1 X0.4 Y20 Z0.3 F1500.0 E30 ; Draw the second line
G92 E0 ; Reset Extruder
G1 Z2.0 F3000 ; Move Z Axis up little to prevent scratching of Heat Bed
G1 X5 Y20 Z0.3 F5000.0 ; Move over to prevent blob squish
G92 E0
G92 E0
G1 F1500 E-6.5
;LAYER_COUNT:260
;LAYER:0
M107
G0 F6000 X53.834 Y53.366 Z0.2
;TYPE:SKIRT
G1 F1500 E0
G1 F1200 X54.069 Y53.138 E0.01089
G1 X54.774 Y52.51 E0.04229
G1 X55.706 Y51.826 E0.08074
G1 X55.956 Y51.662 E0.09069
G1 X56.384 Y51.396 E0.10745
G1 X56.985 Y51.04 E0.13068
G1 X57.811 Y50.597 E0.16186
G1 X58.867 Y50.153 E0.19996
G1 X59.289 Y50.005 E0.21483
G1 X59.548 Y49.919 E0.22391
G1 X59.836 Y49.828 E0.23395
G1 X60.386 Y49.662 E0.25306
G1 X61.294 Y49.43 E0.28423
G1 X62.476 Y49.247 E0.32401
G1 X62.828 Y49.212 E0.33578
G1 X63.278 Y49.177 E0.35079
G1 X63.863 Y49.143 E0.37028
G1 X64.801 Y49.128 E0.40148
G1 X66.095 Y49.24 E0.44468
G1 X66.846 Y49.35 E0.46993
G1 X67.224 Y49.412 E0.48267
G1 X67.471 Y49.457 E0.49102
G1 X68.385 Y49.664 E0.52219
G1 X69.615 Y50.078 E0.56535
G1 X70.309 Y50.358 E0.59024
G1 X70.673 Y50.513 E0.6034
G1 X70.978 Y50.649 E0.61451
G1 X71.236 Y50.767 E0.62395
G1 X71.554 Y50.919 E0.63567
G1 X73.904 Y52.001 E0.72172
G1 X76.221 Y52.99 E0.80551
G1 X78.576 Y53.918 E0.8897
G1 X80.926 Y54.768 E0.97281
G1 X83.314 Y55.555 E1.05644
G1 X85.725 Y56.275 E1.14013
G1 X88.154 Y56.927 E1.22378
G1 X90.646 Y57.521 E1.30899
G1 X93.072 Y58.025 E1.3914
G1 X95.522 Y58.464 E1.47418
G1 X98.048 Y58.842 E1.55913
G1 X100.559 Y59.147 E1.64326
G1 X103.047 Y59.377 E1.72637
G1 X105.537 Y59.537 E1.80936
G1 X108.069 Y59.628 E1.89363
G1 X110.586 Y59.647 E1.97734
G1 X113.108 Y59.594 E2.06124
G1 X115.641 Y59.47 E2.14559
G1 X118.133 Y59.277 E2.22873
G1 X120.615 Y59.013 E2.31174
G1 X123.151 Y58.672 E2.39685
G1 X125.586 Y58.273 E2.47892
G1 X128.105 Y57.787 E2.56425
G1 X130.487 Y57.257 E2.64541
G1 X133.007 Y56.622 E2.73184
G1 X135.397 Y55.947 E2.81445
G1 X137.809 Y55.192 E2.89851
G1 X140.187 Y54.372 E2.98217
G1 X142.539 Y53.486 E3.06576
G1 X144.884 Y52.527 E3.15003
G1 X147.157 Y51.52 E3.23272
G1 X147.71 Y51.256 E3.2531
G1 X147.912 Y51.162 E3.26051
G1 X149.599 Y50.397 E3.32212
G1 X149.957 Y50.242 E3.33509
G1 X150.256 Y50.119 E3.34585
G1 X151.138 Y49.8 E3.37704
G1 X152.278 Y49.507 E3.41619
G1 X152.652 Y49.432 E3.42888
G1 X153.141 Y49.345 E3.4454
G1 X153.719 Y49.256 E3.46485
G1 X154.739 Y49.147 E3.49897
G1 X154.823 Y49.142 E3.50176
G1 X155.955 Y49.133 E3.53942
G1 X156.277 Y49.147 E3.55014
G1 X156.75 Y49.178 E3.5659
G1 X157.395 Y49.234 E3.58744
G1 X158.326 Y49.355 E3.61866
G1 X159.452 Y49.612 E3.65708
G1 X159.745 Y49.698 E3.66723
G1 X160.097 Y49.805 E3.67947
G1 X160.423 Y49.909 E3.69085
G1 X160.89 Y50.067 E3.70725
G1 X161.765 Y50.405 E3.73845
G1 X162.894 Y50.977 E3.78054
G1 X163.484 Y51.32 E3.80324
G1 X163.839 Y51.536 E3.81706
G1 X164.087 Y51.693 E3.82682
G1 X165.065 Y52.39 E3.86677
G1 X165.174 Y52.477 E3.87141
G1 X165.965 Y53.173 E3.90645
G1 X166.316 Y53.513 E3.9227
G1 X166.54 Y53.736 E3.93321
G1 X166.809 Y54.012 E3.94603
G1 X167.543 Y54.845 E3.98296
G1 X167.574 Y54.884 E3.98462
G1 X168.243 Y55.823 E4.02296
G1 X168.593 Y56.373 E4.04465
G1 X168.794 Y56.702 E4.05747
G1 X168.954 Y56.974 E4.06797
G1 X169.395 Y57.802 E4.09917
G1 X169.886 Y59.005 E4.14238
G1 X170.137 Y59.742 E4.16828
G1 X170.252 Y60.101 E4.18082
G1 X170.331 Y60.362 E4.18989
G1 X170.581 Y61.349 E4.22375
G1 X170.752 Y62.462 E4.2612
G1 X170.783 Y62.766 E4.27137
G1 X170.822 Y63.245 E4.28735
G1 X170.86 Y63.9 E4.30917
G1 X170.874 Y64.838 E4.34038
G1 X170.833 Y65.533 E4.36353
G1 X170.822 Y65.654 E4.36757
G1 X170.736 Y66.349 E4.39087
G1 X170.687 Y66.664 E4.40147
G1 X170.641 Y66.941 E4.41081
G1 X170.547 Y67.458 E4.42828
G1 X170.34 Y68.372 E4.45945
G1 X169.925 Y69.607 E4.50279
G1 X169.63 Y70.338 E4.52901
G1 X169.47 Y70.714 E4.5426
G1 X169.287 Y71.123 E4.5575
G1 X169.022 Y71.687 E4.57823
G1 X167.927 Y74.078 E4.66569
G1 X166.937 Y76.412 E4.75002
G1 X166.018 Y78.759 E4.83385
G1 X165.171 Y81.12 E4.91728
G1 X164.392 Y83.5 E5.00057
G1 X163.677 Y85.911 E5.08421
G1 X163.019 Y88.385 E5.16936
G1 X162.444 Y90.82 E5.25257
G1 X161.94 Y93.275 E5.33593
G1 X161.503 Y95.751 E5.41956
G1 X161.135 Y98.231 E5.50294
G1 X160.836 Y100.749 E5.58728
G1 X160.612 Y103.227 E5.67004
G1 X160.456 Y105.753 E5.75421
G1 X160.371 Y108.277 E5.83821
G1 X160.358 Y110.8 E5.92212
G1 X160.415 Y113.288 E6.0049
G1 X160.546 Y115.844 E6.09002
G1 X160.745 Y118.333 E6.17307
G1 X161.015 Y120.833 E6.2567
G1 X161.358 Y123.339 E6.34083
G1 X161.767 Y125.8 E6.42381
G1 X162.251 Y128.279 E6.50781
G1 X162.794 Y130.694 E6.59014
G1 X163.426 Y133.179 E6.67543
G1 X164.113 Y135.589 E6.75878
G1 X164.879 Y138.018 E6.84349
G1 X165.701 Y140.385 E6.92683
G1 X166.588 Y142.725 E7.01006
G1 X167.532 Y145.015 E7.09244
G1 X168.881 Y148.017 E7.20191
G1 X169.359 Y149.032 E7.23922
G1 X169.494 Y149.33 E7.2501
G1 X169.627 Y149.64 E7.26132
G1 X169.821 Y150.106 E7.27811
G1 X170.271 Y151.411 E7.32402
G1 X170.349 Y151.694 E7.33379
G1 X170.567 Y152.649 E7.36637
G1 X170.623 Y152.957 E7.37678
G1 X170.67 Y153.24 E7.38632
G1 X170.741 Y153.698 E7.40174
G1 X170.866 Y155.045 E7.44673
G1 X170.868 Y155.11 E7.44889
G1 X170.858 Y156.021 E7.4792
G1 X170.826 Y156.634 E7.49961
G1 X170.8 Y157.006 E7.51201
G1 X170.768 Y157.377 E7.5244
G1 X170.648 Y158.307 E7.55559
G1 X170.375 Y159.491 E7.596
G1 X170.265 Y159.871 E7.60916
G1 X170.137 Y160.283 E7.62351
G1 X169.992 Y160.719 E7.63879
G1 X169.629 Y161.663 E7.67243
G1 X169.512 Y161.93 E7.68213
G1 X168.894 Y163.133 E7.72711
G1 X168.733 Y163.404 E7.73759
G1 X168.589 Y163.639 E7.74676
G1 X168.342 Y164.032 E7.7622
G1 X167.793 Y164.827 E7.79433
G1 X167.705 Y164.943 E7.79917
G1 X166.854 Y165.936 E7.84267
G1 X166.517 Y166.285 E7.85881
G1 X166.273 Y166.53 E7.87031
G1 X165.946 Y166.848 E7.88548
G1 X165.26 Y167.462 E7.9161
G1 X164.217 Y168.225 E7.95908
G1 X163.924 Y168.414 E7.97068
G1 X163.535 Y168.653 E7.98586
G1 X163.159 Y168.874 E8.00037
G1 X162.846 Y169.051 E8.01233
G1 X162.633 Y169.167 E8.0204
G1 X161.791 Y169.58 E8.05159
G1 X160.913 Y169.921 E8.08292
G1 X160.416 Y170.09 E8.10038
G1 X160.066 Y170.203 E8.11261
G1 X159.647 Y170.33 E8.12717
G1 X158.307 Y170.646 E8.17296
G1 X157.492 Y170.757 E8.20032
G1 X157.187 Y170.787 E8.21051
G1 X156.731 Y170.822 E8.22572
G1 X156.094 Y170.858 E8.24694
G1 X155.156 Y170.871 E8.27814
G1 X153.857 Y170.757 E8.32152
G1 X153.15 Y170.652 E8.34529
G1 X152.745 Y170.584 E8.35895
G1 X152.424 Y170.524 E8.36981
G1 X151.51 Y170.312 E8.40102
G1 X150.561 Y170.003 E8.43421
G1 X150.189 Y169.856 E8.44751
G1 X149.802 Y169.696 E8.46144
G1 X149.496 Y169.564 E8.47253
G1 X149.002 Y169.342 E8.49054
G1 X146.315 Y168.095 E8.58906
G1 X143.984 Y167.093 E8.67345
G1 X141.65 Y166.167 E8.75697
G1 X139.303 Y165.311 E8.84006
G1 X136.882 Y164.506 E8.92492
G1 X134.501 Y163.788 E9.00763
G1 X132.038 Y163.12 E9.09251
G1 X129.587 Y162.529 E9.17637
G1 X127.163 Y162.019 E9.25876
G1 X124.686 Y161.57 E9.34248
G1 X122.182 Y161.187 E9.42674
G1 X119.669 Y160.877 E9.51095
G1 X117.18 Y160.64 E9.59411
G1 X114.683 Y160.473 E9.67735
G1 X112.137 Y160.375 E9.76209
G1 X109.649 Y160.351 E9.84485
G1 X107.118 Y160.397 E9.92904
G1 X104.61 Y160.513 E10.01255
G1 X102.111 Y160.701 E10.0959
G1 X99.595 Y160.962 E10.18003
G1 X97.086 Y161.293 E10.2642
G1 X94.599 Y161.694 E10.34799
G1 X92.13 Y162.163 E10.43158
G1 X89.706 Y162.696 E10.51413
G1 X87.244 Y163.309 E10.59851
G1 X84.8 Y163.994 E10.68293
G1 X82.411 Y164.735 E10.76613
G1 X80.035 Y165.547 E10.84964
G1 X77.672 Y166.431 E10.93355
G1 X75.334 Y167.38 E11.01748
G1 X73.032 Y168.393 E11.10113
G1 X72.049 Y168.858 E11.13729
G1 X70.36 Y169.62 E11.19892
G1 X70.001 Y169.774 E11.21192
G1 X69.759 Y169.873 E11.22061
G1 X68.877 Y170.191 E11.2518
G1 X67.643 Y170.499 E11.2941
G1 X66.91 Y170.638 E11.31891
G1 X66.506 Y170.707 E11.33254
G1 X66.235 Y170.748 E11.34166
G1 X65.303 Y170.849 E11.37284
G1 X64.019 Y170.857 E11.41555
G1 X63.327 Y170.821 E11.43859
G1 X63.006 Y170.8 E11.44929
G1 X62.711 Y170.776 E11.45914
G1 X61.78 Y170.66 E11.49034
G1 X61.096 Y170.523 E11.51354
G1 X60.908 Y170.479 E11.51997
G1 X60.159 Y170.275 E11.54579
G1 X59.694 Y170.129 E11.562
G1 X59.157 Y169.95 E11.58082
G1 X58.501 Y169.707 E11.60409
G1 X57.646 Y169.322 E11.63528
G1 X57.154 Y169.059 E11.65383
G1 X56.911 Y168.921 E11.66313
G1 X56.485 Y168.667 E11.67962
G1 X55.881 Y168.287 E11.70336
G1 X55.11 Y167.754 E11.73453
G1 X54.359 Y167.133 E11.76694
G1 X54.275 Y167.057 E11.77071
G1 X53.941 Y166.741 E11.78601
G1 X53.512 Y166.316 E11.80609
G1 X53.156 Y165.949 E11.8231
G1 X52.533 Y165.249 E11.85426
G1 X51.78 Y164.208 E11.897
G1 X51.51 Y163.785 E11.91369
G1 X51.272 Y163.396 E11.92885
G1 X50.972 Y162.88 E11.94871
G1 X50.536 Y162.05 E11.97989
G1 X50.046 Y160.83 E12.02362
G1 X49.952 Y160.548 E12.0335
G1 X49.851 Y160.227 E12.0447
G1 X49.658 Y159.583 E12.06706
G1 X49.427 Y158.674 E12.09825
G1 X49.237 Y157.38 E12.14175
G1 X49.189 Y156.829 E12.16015
G1 X49.164 Y156.486 E12.17159
G1 X49.142 Y156.091 E12.18474
G1 X49.13 Y155.153 E12.21594
G1 X49.244 Y153.869 E12.25882
G1 X49.351 Y153.146 E12.28313
G1 X49.424 Y152.709 E12.29786
G1 X49.485 Y152.387 E12.30876
G1 X49.699 Y151.473 E12.33999
G1 X50.075 Y150.36 E12.37906
G1 X50.14 Y150.197 E12.3849
G1 X50.339 Y149.731 E12.40175
G1 X51.156 Y147.928 E12.46759
G1 X51.252 Y147.722 E12.47515
G1 X51.465 Y147.276 E12.49158
G1 X52.496 Y144.955 E12.57606
G1 X53.463 Y142.605 E12.66058
G1 X54.336 Y140.287 E12.74296
G1 X55.156 Y137.918 E12.82634
G1 X55.917 Y135.499 E12.91068
G1 X56.609 Y133.06 E12.99501
G1 X57.221 Y130.647 E13.0778
G1 X57.785 Y128.128 E13.16366
G1 X58.249 Y125.725 E13.24506
G1 X58.66 Y123.23 E13.32916
G1 X59 Y120.733 E13.41298
G1 X59.269 Y118.214 E13.49724
G1 X59.466 Y115.716 E13.58058
G1 X59.593 Y113.198 E13.66444
G1 X59.647 Y110.71 E13.74721
G1 X59.631 Y108.151 E13.83232
G1 X59.545 Y105.663 E13.91512
G1 X59.387 Y103.168 E13.99827
G1 X59.156 Y100.634 E14.0829
G1 X58.855 Y98.129 E14.16682
G1 X58.484 Y95.636 E14.25065
G1 X58.047 Y93.179 E14.33365
G1 X57.535 Y90.707 E14.41762
G1 X56.961 Y88.282 E14.5005
G1 X56.301 Y85.814 E14.58547
G1 X55.589 Y83.415 E14.6687
G1 X54.801 Y81.018 E14.75262
G1 X53.953 Y78.666 E14.83578
G1 X53.027 Y76.307 E14.92007
G1 X52.048 Y74.007 E15.00321
G1 X50.661 Y71.003 E15.11326
G1 X50.403 Y70.424 E15.13434
G1 X50.263 Y70.096 E15.1462
G1 X50.105 Y69.708 E15.16014
G1 X49.789 Y68.825 E15.19133
G1 X49.532 Y67.84 E15.22519
G1 X49.479 Y67.59 E15.23369
G1 X49.402 Y67.191 E15.2472
G1 X49.341 Y66.824 E15.25958
G1 X49.249 Y66.221 E15.27987
G1 X49.147 Y65.289 E15.31105
G1 X49.128 Y64.231 E15.34624
G1 X49.133 Y64.065 E15.35177
G1 X49.147 Y63.75 E15.36225
G1 X49.163 Y63.478 E15.37132
G1 X49.183 Y63.197 E15.38069
G1 X49.228 Y62.665 E15.39844
G1 X49.347 Y61.735 E15.42963
G1 X49.656 Y60.42 E15.47456
G1 X49.856 Y59.756 E15.49762
G1 X49.953 Y59.449 E15.50833
G1 X50.047 Y59.167 E15.51822
G1 X50.382 Y58.291 E15.54941
G1 X50.983 Y57.101 E15.59375
G1 X51.37 Y56.438 E15.61928
G1 X51.539 Y56.157 E15.63019
G1 X51.667 Y55.952 E15.63823
G1 X52.198 Y55.178 E15.66945
G1 X53.06 Y54.163 E15.71374
G1 X53.556 Y53.646 E15.73757
G1 X53.834 Y53.366 E15.75069
G0 F6000 X54.113 Y53.653
G1 F1200 X54.348 Y53.425 E15.76158
G1 X55.028 Y52.82 E15.79185
G1 X55.926 Y52.161 E15.8289
G1 X56.176 Y51.997 E15.83885
G1 X56.588 Y51.74 E15.855
G1 X57.189 Y51.384 E15.87823
G1 X58.001 Y50.95 E15.90885
G1 X59.003 Y50.53 E15.94499
G1 X59.415 Y50.385 E15.95952
G1 X59.674 Y50.299 E15.96859
G1 X59.951 Y50.211 E15.97826
G1 X60.501 Y50.045 E15.99737
G1 X61.393 Y49.818 E16.02798
G1 X62.515 Y49.645 E16.06574
G1 X62.867 Y49.61 E16.07751
G1 X63.301 Y49.576 E16.09198
G1 X63.886 Y49.542 E16.11147
G1 X64.807 Y49.528 E16.14211
G1 X66.037 Y49.636 E16.18318
G1 X66.788 Y49.746 E16.20842
G1 X67.152 Y49.806 E16.22069
G1 X67.399 Y49.851 E16.22904
G1 X68.297 Y50.055 E16.25967
G1 X69.465 Y50.449 E16.30067
G1 X70.159 Y50.729 E16.32556
G1 X70.51 Y50.878 E16.33824
G1 X70.815 Y51.014 E16.34935
G1 X71.063 Y51.128 E16.35843
G1 X71.396 Y51.287 E16.3707
G1 X73.729 Y52.361 E16.45613
G1 X76.066 Y53.359 E16.54065
G1 X78.43 Y54.29 E16.62515
G1 X80.802 Y55.148 E16.70905
G1 X83.189 Y55.935 E16.79264
G1 X85.603 Y56.656 E16.87644
G1 X88.072 Y57.318 E16.96146
G1 X90.537 Y57.906 E17.04574
G1 X92.998 Y58.417 E17.12934
G1 X95.497 Y58.865 E17.21378
G1 X97.976 Y59.237 E17.29716
G1 X100.507 Y59.544 E17.38196
G1 X103.021 Y59.776 E17.46593
G1 X105.533 Y59.937 E17.54965
G1 X108.051 Y60.028 E17.63345
G1 X110.591 Y60.047 E17.71794
G1 X113.137 Y59.994 E17.80264
G1 X115.656 Y59.87 E17.88652
G1 X118.136 Y59.678 E17.96925
G1 X120.715 Y59.404 E18.05551
G1 X123.159 Y59.075 E18.13753
G1 X125.695 Y58.66 E18.223
G1 X128.163 Y58.184 E18.3066
G1 X130.6 Y57.642 E18.38964
G1 X133.109 Y57.009 E18.4757
G1 X135.51 Y56.331 E18.55868
G1 X137.932 Y55.573 E18.64309
G1 X140.311 Y54.752 E18.7268
G1 X142.683 Y53.859 E18.81109
G1 X145.048 Y52.892 E18.89608
G1 X147.339 Y51.877 E18.97942
G1 X148.077 Y51.526 E19.0066
G1 X149.764 Y50.761 E19.06821
G1 X150.109 Y50.612 E19.08071
G1 X150.408 Y50.489 E19.09146
G1 X151.274 Y50.176 E19.12209
G1 X152.357 Y49.899 E19.15927
G1 X152.731 Y49.824 E19.17195
G1 X153.202 Y49.74 E19.18787
G1 X153.78 Y49.651 E19.20732
G1 X154.763 Y49.547 E19.2402
G1 X154.847 Y49.542 E19.24299
G1 X155.937 Y49.533 E19.27925
G1 X156.259 Y49.547 E19.28997
G1 X156.716 Y49.577 E19.3052
G1 X157.361 Y49.633 E19.32674
G1 X158.274 Y49.752 E19.35736
G1 X159.343 Y49.997 E19.39384
G1 X159.629 Y50.08 E19.40374
G1 X159.981 Y50.187 E19.41598
G1 X160.295 Y50.288 E19.42695
G1 X160.762 Y50.446 E19.44334
G1 X161.621 Y50.779 E19.47399
G1 X162.693 Y51.323 E19.51397
G1 X163.283 Y51.666 E19.53667
G1 X163.625 Y51.874 E19.54998
G1 X163.873 Y52.031 E19.55974
G1 X164.815 Y52.702 E19.59821
G1 X164.924 Y52.789 E19.60285
G1 X165.687 Y53.46 E19.63665
G1 X166.038 Y53.8 E19.6529
G1 X166.254 Y54.016 E19.66306
G1 X166.523 Y54.292 E19.67588
G1 X167.23 Y55.094 E19.71144
G1 X167.261 Y55.133 E19.71309
G1 X167.906 Y56.038 E19.75006
G1 X168.256 Y56.588 E19.77174
G1 X168.45 Y56.905 E19.7841
G1 X168.61 Y57.177 E19.7946
G1 X169.041 Y57.99 E19.8252
G1 X169.507 Y59.134 E19.86629
G1 X169.758 Y59.871 E19.89218
G1 X169.869 Y60.217 E19.90427
G1 X169.948 Y60.478 E19.91334
G1 X170.189 Y61.43 E19.946
G1 X170.354 Y62.503 E19.98211
G1 X170.385 Y62.807 E19.99227
G1 X170.422 Y63.268 E20.00765
G1 X170.46 Y63.923 E20.02948
G1 X170.474 Y64.844 E20.06011
G1 X170.434 Y65.497 E20.08187
G1 X170.423 Y65.618 E20.08591
G1 X170.341 Y66.287 E20.10833
G1 X170.292 Y66.602 E20.11893
G1 X170.247 Y66.869 E20.12794
G1 X170.153 Y67.386 E20.14542
G1 X169.949 Y68.284 E20.17604
G1 X169.554 Y69.457 E20.21721
G1 X169.259 Y70.188 E20.24343
G1 X169.105 Y70.55 E20.25651
G1 X168.922 Y70.959 E20.27142
G1 X168.824 Y71.171 E20.27919
G1 X168.64 Y71.558 E20.29344
G1 X167.553 Y73.933 E20.38031
G1 X166.572 Y76.246 E20.46387
G1 X165.644 Y78.615 E20.5485
G1 X164.801 Y80.965 E20.63154
G1 X164.012 Y83.377 E20.71594
G1 X163.284 Y85.832 E20.80111
G1 X162.638 Y88.261 E20.88471
G1 X162.051 Y90.745 E20.9696
G1 X161.546 Y93.203 E21.05306
G1 X161.112 Y95.659 E21.13602
G1 X160.737 Y98.192 E21.22118
G1 X160.439 Y100.702 E21.30525
G1 X160.214 Y103.2 E21.38867
G1 X160.056 Y105.752 E21.47371
G1 X159.971 Y108.26 E21.55718
G1 X159.958 Y110.807 E21.64189
G1 X160.015 Y113.319 E21.72546
G1 X160.146 Y115.858 E21.81002
G1 X160.344 Y118.339 E21.8928
G1 X160.62 Y120.894 E21.97828
G1 X160.962 Y123.387 E22.06197
G1 X161.374 Y125.87 E22.14569
G1 X161.862 Y128.371 E22.23044
G1 X162.412 Y130.816 E22.31379
G1 X163.036 Y133.273 E22.39811
G1 X163.732 Y135.714 E22.48253
G1 X164.495 Y138.132 E22.56686
G1 X165.325 Y140.521 E22.65098
G1 X166.204 Y142.841 E22.73349
